X: 117
T: Cook in the Kitchen [The]
M: 6/8
L: 1/8
R: Jig
K: G
E|DGG GAG|=FDE F2 E|DGG GFG|Add cAG|
DGG GAG|=FDE F2 d|cAG FGA|BGG G2 :|
A|BcB BAG|ABA AGF|GAG GFG|Add cAG|
BcB BAG|ABA A2d|cAG FGA|BGG G2 :|
B|d2 e f2 g|a2 g fed|cAG FGA|BdB cAF|
d2 e f2 g|a2 g fed|cAG FGA|BGG G2 :|
